X: 1
T:Angels We Have Heard on High [G,w]
C:Traditional (French Carol), English Words: James Chadwick
S:An Online Christmas Songbook
Z:ABC by Thornton Rose, December 2001
N:Original score in F.
M:4/4
L:1/4
K:G
  B  B    B   d | d>c      B2 |  B     A  B     d | B>A     G2 |
w:An-gels we have heard on high, sweet-ly sing-ing  o'er the plains
  B   B   B    d |   d>c   B2 | B   A  B  d |   B>A     G2 |:
w:And the moun-tains in re-ply, ech-o-ing their joy-ous strains.
 (d2 e/2d/2c/2B/2 | c2 d/2c/2B/2A/2 | B2 c/2B/2A/2G/2 | A>)D D2 | G A B c |
w:Glo-o-o-o-o-o-o-o-o-o-o-o-o-o-o-or-i-a, in ex-cel-sis
[1 B2 A2 :| [2 (B2 A2) | G4 |]
w:De-o. De-e-o.
W:2. Shepherd why this jubilee?
W:Why your joyous strains prolong?
W:What the gladsome tidings be,
W:Which inspire your heavenly song?
W:(Chorus)
W:
W:3. Come to Bethlehem and see,
W:Him whose birth the angels sing.
W:Come adore on bended knee,
W:Christ the Lord the newborn king.
W:(Chorus)
W:
W:4. See him in a manger laid,
W:Whom the choirs of angels praise.
W:Mary, Joseph, lend your aid,
W:While our hearts in love we raise.
W:(Chorus)
W:
W:0. Chorus:
W:Gloria, in excelsis Deo.
W:Gloria, in excelsis Deo.

